X: 61
T: Skrædderens Hopsa
B:[[Notböcker/Melodier til gamle danske Almuedanse for Violin solo]]
O:Danmark
Z:Søren Bak Vestergaard
M: 2/4
L: 1/16
K: G
GFGB d2dB|c2cA B2(BA)|GFGB d2dB|c2cA G4:|\
|:(Bd)G2 (Bd)G2|edcB cBAG|(Bd)G2 (Bd)G2|c2AF G4:|

